; HEADER_BLOCK_START
; generated by OrcaSlicer 2.0.0 on 2024-09-18 at 16:06:16
; total layer number: 150
; filament_density: 1.24
; filament_diameter: 1.75
; max_z_height: 30.00
; HEADER_BLOCK_END

; THUMBNAIL_BLOCK_START

;
; THUMBNAIL_BLOCK_END

; THUMBNAIL_BLOCK_START

;
; THUMBNAIL_BLOCK_END

; external perimeters extrusion width = 0.40mm
; perimeters extrusion width = 0.45mm
; infill extrusion width = 0.45mm
; solid infill extrusion width = 0.45mm
; top infill extrusion width = 0.38mm
; support material extrusion width = 0.38mm
; first layer extrusion width = 0.42mm

; EXECUTABLE_BLOCK_START
EXCLUDE_OBJECT_DEFINE NAME=loadcellbasev1_v2.step_id_0_copy_0 CENTER=160,160 POLYGON=[[85,109.764],[235,109.764],[235,210.236],[85,210.236],[85,109.764]]
M73 P0 R111
M106 S0
M106 P2 S0
;TYPE:Custom
;ELEGOO NEPTUNE 4 PLUS
M220 S100 ;Set the feed speed to 100%
M221 S100 ;Set the flow rate to 100%
M104 S140
M190 S60
G90
G28 ;home
G1 Z10 F300
G1 X115 Y0.5 F6000
G1 Z0 F300
M109 S210
G92 E0 ;Reset Extruder
G1 X115 Y0.5 Z0.4 F300 ;Move to start position
G1 X215.0 E30 F400 ;Draw the first line
G1 Z0.6 F120.0 ;Move to side a little
G1 X210 F3000
G92 E0 ;Reset Extruder
G90
G21
M83 ; use relative distances for extrusion
; filament start gcode
M106 S0
M106 P2 S0
;LAYER_CHANGE
;Z:0.2
;HEIGHT:0.2
;BEFORE_LAYER_CHANGE
G92 E0
;0.2


G1 E-.5 F2700
;AFTER_LAYER_CHANGE
;0.2
;_SET_FAN_SPEED_CHANGING_LAYER
SET_VELOCITY_LIMIT ACCEL=1000 ACCEL_TO_DECEL=500
SET_VELOCITY_LIMIT SQUARE_CORNER_VELOCITY=7
G1 Z.4 F21000
G1 X79.617 Y103.497
G1 Z.4
G1 Z.2
G1 E.5 F2700
;TYPE:Skirt
;WIDTH:0.42
G1 F3000
G1 X80.405 Y102.897 E.03043
G1 X81.446 Y102.308 E.03675
G1 X82.766 Y101.813 E.04332
G1 X83.819 Y101.589 E.03307
G1 X85 Y101.499 E.0364
G1 X235.084 Y101.502 E4.61165
G1 X236.881 Y101.721 E.05565
G1 X237.998 Y102.073 E.03597
G1 X238.866 Y102.476 E.02942
G1 X239.797 Y103.046 E.03355
G1 X240.698 Y103.785 E.03582
G1 X241.867 Y105.169 E.05565
G1 X242.456 Y106.21 E.03675
G1 X242.951 Y107.53 E.04332
G1 X243.175 Y108.583 E.03307
G1 X243.265 Y109.764 E.0364
G1 X243.262 Y210.32 E3.0898
G1 X243.192 Y211.308 E.03043
G1 X243.002 Y212.28 E.03043
G1 X242.691 Y213.234 E.03084
G1 X242.288 Y214.102 E.02942
G1 X241.717 Y215.033 E.03355
G1 X241.092 Y215.812 E.0307
G1 X240.383 Y216.503 E.03043
G1 X239.595 Y217.103 E.03043
G1 X238.554 Y217.692 E.03675
G1 X237.234 Y218.187 E.04332
G1 X236.181 Y218.411 E.03307
G1 X235 Y218.501 E.0364
G1 X85 Y218.501 E4.60908
G1 X83.929 Y218.428 E.033
G1 X82.957 Y218.239 E.03043
G1 X82.002 Y217.927 E.03084
G1 X81.134 Y217.524 E.02942
G1 X80.203 Y216.954 E.03355
G1 X79.424 Y216.328 E.0307
G1 X78.733 Y215.619 E.03043
G1 X78.133 Y214.831 E.03043
G1 X77.544 Y213.79 E.03675
G1 X77.049 Y212.47 E.04332
G1 X76.825 Y211.417 E.03307
G1 X76.735 Y210.236 E.0364
G1 X76.735 Y109.764 E3.08724
G1 X76.808 Y108.692 E.033
G1 X76.998 Y107.72 E.03043
G1 X77.309 Y106.766 E.03084
G1 X77.712 Y105.898 E.02942
G1 X78.283 Y104.967 E.03355
G1 X78.908 Y104.188 E.0307
G1 X79.589 Y103.525 E.0292
; printing object loadcellbasev1 v2.step id:0 copy 0
G1 E-.425 F2700
;WIPE_START
G1 F3000
G1 X80.381 Y102.915 E-.075
;WIPE_END
EXCLUDE_OBJECT_START NAME=loadcellbasev1_v2.step_id_0_copy_0
G1 Z.6 F21000
G1 X196.392 Y155.836 Z.6
G1 Z.2
G1 E.5 F2700
;TYPE:Support
G1 F3000
G1 X196.794 Y155.888 E.01246
G1 X197.189 Y155.981 E.01246
G1 X197.758 Y156.196 E.01869
G1 X198.116 Y156.386 E.01246
G1 X198.453 Y156.613 E.01246
G1 X198.764 Y156.872 E.01246
G1 X199.047 Y157.163 E.01247
G1 X199.412 Y157.649 E.01868
G1 X199.612 Y158.002 E.01246
G1 X199.775 Y158.374 E.01246
G1 X199.898 Y158.76 E.01246
G1 X199.981 Y159.158 E.01246
G1 X200.023 Y159.561 E.01246
G1 X200.023 Y159.967 E.01246
G1 X199.981 Y160.37 E.01246
G1 X199.898 Y160.767 E.01246
G1 X199.775 Y161.154 E.01246
G1 X199.612 Y161.526 E.01247
G1 X199.412 Y161.878 E.01246
G1 X199.177 Y162.209 E.01246
G1 X198.764 Y162.655 E.01869
G1 X198.453 Y162.915 E.01246
G1 X198.116 Y163.141 E.01246
G1 X197.754 Y163.334 E.0126
G1 X197.382 Y163.485 E.01233
G1 X196.993 Y163.598 E.01246
G1 X196.594 Y163.671 E.01246
G1 X196.189 Y163.702 E.01246
G1 X195.784 Y163.692 E.01246
G1 X195.382 Y163.64 E.01246
G1 X194.987 Y163.547 E.01246
G1 X194.604 Y163.413 E.01247
G1 X194.236 Y163.241 E.01246
G1 X193.723 Y162.915 E.01869
G1 X193.412 Y162.655 E.01246
G1 X193.129 Y162.365 E.01246
G1 X192.877 Y162.047 E.01246
G1 X192.659 Y161.704 E.01247
G1 X192.478 Y161.342 E.01246
G1 X192.335 Y160.962 E.01246
G1 X192.232 Y160.57 E.01246
G1 X192.169 Y160.169 E.01246
G1 X192.153 Y159.561 E.0187
G1 X192.195 Y159.158 E.01245
G1 X192.278 Y158.76 E.01246
G1 X192.401 Y158.374 E.01246
G1 X192.564 Y158.002 E.01246
G1 X192.877 Y157.481 E.01869
G1 X193.129 Y157.163 E.01246
G1 X193.412 Y156.872 E.01246
G1 X193.723 Y156.613 E.01246
G1 X194.06 Y156.386 E.01246
G1 X194.418 Y156.196 E.01246
G1 X194.794 Y156.043 E.01247
G1 X195.183 Y155.929 E.01246
G1 X195.582 Y155.857 E.01246
G1 X195.987 Y155.825 E.01246
G1 X196.336 Y155.833 E.01073
G1 X199.384 Y161.593 F21000
G1 F3000
G1 X199.384 Y158.315 E.10072
G1 X199.221 Y157.991 E.01115
G1 X198.965 Y157.601 E.01433
G1 X198.965 Y161.927 E.13291
G1 X198.792 Y162.141 E.00844
G1 X198.546 Y162.394 E.01087
G1 X198.546 Y157.134 E.16164
G1 X198.127 Y156.797 E.01651
G1 X198.127 Y162.73 E.1823
G1 X197.708 Y162.978 E.01495
G1 X197.708 Y156.55 E.19751
G1 X197.289 Y156.37 E.01401
G1 X197.289 Y163.157 E.20856
G1 X197.094 Y163.221 E.00629
G1 X196.87 Y163.277 E.00711
G1 X196.87 Y156.25 E.21592
G1 X196.451 Y156.183 E.01304
G1 X196.451 Y163.345 E.22006
G1 X196.032 Y163.363 E.01289
G1 X196.032 Y156.165 E.22118
G1 X195.613 Y156.195 E.01291
G1 X195.613 Y163.332 E.2193
G1 X195.194 Y163.25 E.01312
G1 X195.194 Y156.277 E.21426
G1 X194.775 Y156.413 E.01353
G1 X194.775 Y163.115 E.20595
G1 X194.356 Y162.919 E.01421
G1 X194.356 Y156.608 E.19391
G1 X193.937 Y156.877 E.01529
G1 X193.937 Y162.651 E.17741
G1 X193.518 Y162.285 E.01709
G1 X193.518 Y157.243 E.15493
G1 X193.265 Y157.529 E.01175
G1 X193.099 Y157.759 E.00869
G1 X193.099 Y161.769 E.12322
G1 X192.868 Y161.374 E.01408
G1 X192.68 Y160.922 E.01503
G1 X192.68 Y158.154 E.08504
G1 E-.425 F2700
;WIPE_START
G1 F3000
G1 X192.68 Y159.154 E-.075
;WIPE_END
G1 Z.6 F21000
G1 X211.392 Y155.836 Z.6
G1 Z.2
G1 E.5 F2700
G1 F3000
G1 X211.794 Y155.888 E.01246
G1 X212.189 Y155.981 E.01246
G1 X212.758 Y156.196 E.01869
G1 X213.116 Y156.386 E.01246
G1 X213.453 Y156.613 E.01246
G1 X213.764 Y156.872 E.01246
G1 X214.047 Y157.163 E.01247
G1 X214.412 Y157.649 E.01868
G1 X214.612 Y158.002 E.01246
G1 X214.775 Y158.374 E.01246
G1 X214.898 Y158.76 E.01246
G1 X214.981 Y159.158 E.01246
G1 X215.023 Y159.561 E.01246
G1 X215.023 Y159.967 E.01246
G1 X214.981 Y160.37 E.01246
G1 X214.898 Y160.767 E.01246
G1 X214.775 Y161.154 E.01246
G1 X214.612 Y161.526 E.01247
G1 X214.412 Y161.878 E.01246
G1 X214.177 Y162.209 E.01246
G1 X213.764 Y162.655 E.01869
G1 X213.449 Y162.918 E.0126
G1 X213.116 Y163.141 E.01233
G1 X212.758 Y163.332 E.01246
G1 X212.382 Y163.485 E.01246
G1 X211.993 Y163.598 E.01246
G1 X211.594 Y163.671 E.01246
G1 X211.189 Y163.702 E.01246
G1 X210.784 Y163.692 E.01246
G1 X210.382 Y163.64 E.01246
G1 X209.987 Y163.547 E.01246
G1 X209.604 Y163.413 E.01246
G1 X209.236 Y163.241 E.01246
G1 X208.889 Y163.033 E.01246
G1 X208.564 Y162.789 E.01246
G1 X208.129 Y162.365 E.01869
G1 X207.877 Y162.047 E.01246
G1 X207.659 Y161.704 E.01246
G1 X207.478 Y161.342 E.01246
G1 X207.335 Y160.962 E.01246
G1 X207.232 Y160.57 E.01247
G1 X207.169 Y160.169 E.01246
G1 X207.153 Y159.561 E.01869
G1 X207.232 Y158.958 E.01868
G1 X207.335 Y158.566 E.01246
G1 X207.478 Y158.186 E.01246
G1 X207.659 Y157.823 E.01246
G1 X207.877 Y157.481 E.01246
G1 X208.132 Y157.16 E.0126
G1 X208.412 Y156.872 E.01233
G1 X208.723 Y156.613 E.01246
G1 X209.06 Y156.386 E.01246
G1 X209.418 Y156.196 E.01246
G1 X209.794 Y156.043 E.01246
G1 X210.183 Y155.929 E.01246
G1 X210.582 Y155.857 E.01246
G1 X210.987 Y155.825 E.01246
G1 X211.336 Y155.833 E.01073
G1 X214.467 Y161.435 F21000
G1 F3000
G1 X214.467 Y158.523 E.08949
G1 X214.309 Y158.154 E.01233
G1 X214.048 Y157.716 E.01567
G1 X214.048 Y161.812 E.12586
G1 X213.792 Y162.141 E.0128
G1 X213.629 Y162.313 E.0073
G1 X213.629 Y157.215 E.15666
G1 X213.21 Y156.856 E.01694
G1 X213.21 Y162.671 E.17867
G1 X212.791 Y162.936 E.01522
G1 X212.791 Y156.592 E.19492
G1 X212.372 Y156.402 E.01414
G1 X212.372 Y163.126 E.20663
G1 X211.953 Y163.258 E.0135
G1 X211.953 Y156.27 E.21472
G1 X211.534 Y156.192 E.0131
G1 X211.534 Y163.336 E.21953
G1 X211.115 Y163.363 E.0129
G1 X211.115 Y156.165 E.22118
G1 X210.696 Y156.186 E.01289
G1 X210.696 Y163.342 E.21987
G1 X210.277 Y163.271 E.01305
G1 X210.277 Y156.256 E.21555
G1 X210.082 Y156.307 E.0062
G1 X209.858 Y156.381 E.00724
G1 X209.858 Y163.147 E.20789
G1 X209.439 Y162.963 E.01405
G1 X209.439 Y156.564 E.19663
G1 X209.02 Y156.818 E.01505
G1 X209.02 Y162.71 E.18104
G1 X208.601 Y162.366 E.01665
G1 X208.601 Y157.162 E.15991
G1 X208.387 Y157.384 E.0095
G1 X208.182 Y157.64 E.01005
G1 X208.182 Y161.888 E.13055
G1 X207.955 Y161.537 E.01285
G1 X207.763 Y161.143 E.01347
G1 X207.763 Y157.989 E.09691
G1 E-.425 F2700
;WIPE_START
G1 F3000
G1 X207.763 Y158.989 E-.075
;WIPE_END
G1 Z.6 F21000
G1 X241.699 Y157.989 Z.6
G1 Z.2
G1 E.5 F2700
;TYPE:Brim
G1 F3000
G1 X241.699 Y210.23 E1.60524
G1 X241.65 Y211.035 E.02478
G1 X241.505 Y211.823 E.0246
G1 X241.266 Y212.586 E.02457
G1 X240.873 Y213.432 E.02867
G1 X240.397 Y214.192 E.02754
G1 X239.889 Y214.81 E.02458
G1 X239.31 Y215.362 E.0246
G1 X238.668 Y215.841 E.0246
G1 X237.976 Y216.237 E.02452
G1 X236.874 Y216.663 E.0363
G1 X236.044 Y216.852 E.02616
G1 X234.993 Y216.935 E.0324
G1 X85.006 Y216.935 E4.60868
G1 X84.201 Y216.886 E.02478
G1 X83.414 Y216.741 E.0246
G1 X82.651 Y216.502 E.02457
G1 X81.804 Y216.109 E.02867
G1 X81.045 Y215.633 E.02754
G1 X80.426 Y215.126 E.02458
G1 X79.874 Y214.546 E.0246
G1 X79.395 Y213.905 E.0246
G1 X78.999 Y213.212 E.02452
G1 X78.573 Y212.11 E.0363
G1 X78.385 Y211.28 E.02616
G1 X78.301 Y210.229 E.0324
G1 X78.301 Y109.77 E3.08683
G1 X78.35 Y108.965 E.02477
M73 P0 R110
G1 X78.495 Y108.177 E.0246
G1 X78.734 Y107.414 E.02457
G1 X79.127 Y106.568 E.02867
G1 X79.603 Y105.808 E.02754
G1 X80.111 Y105.19 E.02458
G1 X80.69 Y104.638 E.0246
G1 X81.332 Y104.159 E.0246
G1 X82.024 Y103.763 E.02452
G1 X83.126 Y103.337 E.0363
G1 X83.956 Y103.148 E.02616
G1 X85.007 Y103.065 E.0324
G1 X234.994 Y103.065 E4.60868
G1 X235.799 Y103.114 E.02477
G1 X236.586 Y103.259 E.0246
G1 X237.349 Y103.498 E.02457
G1 X238.196 Y103.891 E.02867
G1 X238.955 Y104.367 E.02754
G1 X239.574 Y104.874 E.02458
G1 X240.126 Y105.454 E.0246
G1 X240.605 Y106.095 E.0246
G1 X241.001 Y106.788 E.02452
G1 X241.427 Y107.89 E.0363
G1 X241.615 Y108.72 E.02616
G1 X241.699 Y109.771 E.0324
G1 X241.699 Y157.949 E1.48036
G1 X241.322 Y157.949 F21000
G1 F3000
G1 X241.322 Y210.216 E1.60601
G1 X241.275 Y210.983 E.02361
G1 X241.136 Y211.738 E.02361
G1 X240.91 Y212.456 E.02312
G1 X240.544 Y213.245 E.02674
G1 X240.094 Y213.965 E.02607
G1 X239.617 Y214.547 E.02314
G1 X239.072 Y215.069 E.02319
G1 X238.467 Y215.521 E.02319
G1 X237.805 Y215.898 E.02341
G1 X236.755 Y216.303 E.03457
G1 X235.979 Y216.478 E.02447
G1 X234.973 Y216.558 E.03099
G1 X85.021 Y216.558 E4.60762
G1 X84.254 Y216.512 E.02361
G1 X83.498 Y216.372 E.02361
G1 X82.78 Y216.147 E.02312
G1 X81.991 Y215.78 E.02674
G1 X81.271 Y215.33 E.02607
G1 X80.689 Y214.853 E.02314
G1 X80.167 Y214.308 E.02319
G1 X79.715 Y213.703 E.02319
G1 X79.338 Y213.041 E.02341
G1 X78.933 Y211.992 E.03457
G1 X78.758 Y211.215 E.02447
G1 X78.678 Y210.209 E.03099
G1 X78.678 Y109.784 E3.08578
G1 X78.725 Y109.017 E.02361
G1 X78.864 Y108.262 E.02361
G1 X79.09 Y107.544 E.02312
G1 X79.456 Y106.755 E.02674
G1 X79.906 Y106.035 E.02607
G1 X80.383 Y105.453 E.02314
G1 X80.928 Y104.931 E.02319
G1 X81.533 Y104.479 E.02319
G1 X82.195 Y104.102 E.02341
G1 X83.245 Y103.697 E.03457
G1 X84.021 Y103.522 E.02447
G1 X85.027 Y103.442 E.03099
G1 X234.986 Y103.442 E4.60783
G1 X235.76 Y103.49 E.02382
G1 X236.502 Y103.628 E.02319
G1 X237.22 Y103.853 E.02312
G1 X238.022 Y104.227 E.02717
G1 X238.729 Y104.67 E.02564
G1 X239.321 Y105.156 E.02357
G1 X239.833 Y105.692 E.02277
G1 X240.285 Y106.297 E.02319
G1 X240.662 Y106.959 E.02341
G1 X241.067 Y108.008 E.03457
G1 X241.242 Y108.785 E.02447
G1 X241.322 Y109.791 E.03099
G1 X241.322 Y157.909 E1.47853
G1 X240.945 Y157.909 F21000
G1 F3000
G1 X240.945 Y210.201 E1.60678
G1 X240.899 Y210.944 E.02287
G1 X240.768 Y211.654 E.02219
G1 X240.555 Y212.326 E.02166
G1 X240.215 Y213.059 E.02483
G1 X239.791 Y213.738 E.0246
G1 X239.344 Y214.285 E.02171
G1 X238.832 Y214.776 E.02178
G1 X238.265 Y215.201 E.02177
G1 X237.635 Y215.56 E.02229
G1 X236.637 Y215.943 E.03284
G1 X235.914 Y216.105 E.02278
G1 X234.954 Y216.181 E.0296
G1 X85.035 Y216.181 E4.60657
G1 X84.292 Y216.135 E.02287
M73 P1 R110
G1 X83.582 Y216.004 E.02219
G1 X82.91 Y215.791 E.02166
G1 X82.177 Y215.451 E.02483
G1 X81.498 Y215.027 E.0246
G1 X80.951 Y214.58 E.02171
G1 X80.46 Y214.069 E.02178
G1 X80.036 Y213.502 E.02177
G1 X79.676 Y212.871 E.02229
G1 X79.293 Y211.874 E.03284
G1 X79.131 Y211.15 E.02278
G1 X79.055 Y210.19 E.0296
G1 X79.055 Y109.799 E3.08473
G1 X79.101 Y109.056 E.02287
G1 X79.232 Y108.346 E.02219
G1 X79.445 Y107.674 E.02166
G1 X79.785 Y106.941 E.02483
G1 X80.209 Y106.262 E.0246
G1 X80.656 Y105.715 E.02171
G1 X81.168 Y105.224 E.02178
G1 X81.735 Y104.799 E.02177
G1 X82.365 Y104.44 E.02229
G1 X83.363 Y104.057 E.03284
G1 X84.086 Y103.895 E.02278
G1 X85.046 Y103.819 E.0296
G1 X234.971 Y103.819 E4.60677
G1 X235.721 Y103.866 E.02308
G1 X236.417 Y103.996 E.02178
G1 X237.09 Y104.209 E.02167
G1 X237.847 Y104.562 E.02568
G1 X238.502 Y104.973 E.02374
G1 X239.069 Y105.438 E.02255
G1 X239.548 Y105.942 E.02136
G1 X239.964 Y106.498 E.02135
G1 X240.324 Y107.129 E.02229
G1 X240.707 Y108.126 E.03284
G1 X240.869 Y108.85 E.02278
G1 X240.945 Y109.81 E.0296
G1 X240.945 Y157.869 E1.47671
G1 X240.568 Y157.869 F21000
G1 F3000
G1 X240.568 Y210.186 E1.60755
G1 X240.525 Y210.891 E.0217
G1 X240.399 Y211.569 E.0212
G1 X240.2 Y212.196 E.02021
G1 X239.885 Y212.873 E.02293
G1 X239.488 Y213.512 E.02314
G1 X239.071 Y214.024 E.02027
G1 X238.593 Y214.483 E.02037
G1 X238.064 Y214.88 E.02033
G1 X237.465 Y215.221 E.02117
G1 X236.52 Y215.583 E.0311
G1 X235.85 Y215.732 E.0211
G1 X234.934 Y215.804 E.02821
G1 X85.05 Y215.804 E4.60552
G1 X84.345 Y215.761 E.0217
G1 X83.667 Y215.635 E.0212
G1 X83.04 Y215.436 E.02021
G1 X82.363 Y215.122 E.02293
G1 X81.724 Y214.724 E.02314
G1 X81.212 Y214.307 E.02027
G1 X80.753 Y213.829 E.02037
G1 X80.356 Y213.3 E.02033
G1 X80.015 Y212.701 E.02117
G1 X79.653 Y211.756 E.0311
G1 X79.504 Y211.086 E.0211
G1 X79.432 Y210.171 E.02821
G1 X79.432 Y109.814 E3.08367
G1 X79.475 Y109.109 E.0217
G1 X79.601 Y108.431 E.0212
G1 X79.8 Y107.804 E.02021
G1 X80.115 Y107.127 E.02293
G1 X80.512 Y106.488 E.02314
G1 X80.929 Y105.976 E.02027
G1 X81.407 Y105.517 E.02037
G1 X81.936 Y105.12 E.02033
G1 X82.535 Y104.779 E.02117
G1 X83.48 Y104.417 E.0311
G1 X84.15 Y104.268 E.0211
G1 X85.066 Y104.196 E.02821
G1 X234.956 Y104.196 E4.60571
G1 X235.681 Y104.242 E.02233
G1 X236.332 Y104.365 E.02036
G1 X236.959 Y104.564 E.02022
G1 X237.673 Y104.898 E.0242
G1 X238.275 Y105.275 E.02185
G1 X238.817 Y105.72 E.02153
G1 X239.264 Y106.191 E.01995
G1 X239.644 Y106.7 E.01952
G1 X239.985 Y107.299 E.02117
G1 X240.347 Y108.244 E.0311
G1 X240.496 Y108.914 E.0211
G1 X240.568 Y109.829 E.02821
G1 X240.568 Y157.829 E1.47489
G1 X240.191 Y157.829 F21000
G1 F3000
G1 X240.191 Y210.171 E1.60832
G1 X240.15 Y210.838 E.02053
G1 X240.03 Y211.484 E.02019
G1 X239.845 Y212.065 E.01876
G1 X239.556 Y212.687 E.02105
G1 X239.184 Y213.287 E.02169
G1 X238.797 Y213.763 E.01884
G1 X238.353 Y214.191 E.01896
G1 X237.862 Y214.56 E.01888
G1 X237.296 Y214.882 E.02003
G1 X236.403 Y215.223 E.02936
G1 X235.786 Y215.359 E.01941
G1 X234.915 Y215.427 E.02683
G1 X85.065 Y215.427 E4.60447
G1 X84.398 Y215.386 E.02053
G1 X83.752 Y215.266 E.02019
G1 X83.171 Y215.081 E.01876
G1 X82.549 Y214.792 E.02105
G1 X81.95 Y214.42 E.02169
G1 X81.474 Y214.034 E.01884
G1 X81.046 Y213.589 E.01896
G1 X80.676 Y213.099 E.01888
G1 X80.354 Y212.532 E.02003
G1 X80.013 Y211.639 E.02936
