; HEADER_BLOCK_START
; generated by OrcaSlicer 2.0.0 on 2024-09-18 at 16:07:44
; total layer number: 75
; filament_density: 1.24
; filament_diameter: 1.75
; max_z_height: 15.00
; HEADER_BLOCK_END

; THUMBNAIL_BLOCK_START

;
; THUMBNAIL_BLOCK_END

; THUMBNAIL_BLOCK_START

;
; THUMBNAIL_BLOCK_END

; external perimeters extrusion width = 0.40mm
; perimeters extrusion width = 0.45mm
; infill extrusion width = 0.45mm
; solid infill extrusion width = 0.45mm
; top infill extrusion width = 0.38mm
; support material extrusion width = 0.38mm
; first layer extrusion width = 0.42mm

; EXECUTABLE_BLOCK_START
EXCLUDE_OBJECT_DEFINE NAME=load_cell_top_v2_v1.step_id_0_copy_0 CENTER=160,160 POLYGON=[[110,160],[110.006,159.226],[110.024,158.453],[110.054,157.679],[110.096,156.907],[110.15,156.135],[110.215,155.364],[110.293,154.594],[110.383,153.825],[110.484,153.058],[110.598,152.293],[110.723,151.529],[110.86,150.768],[111.008,150.008],[111.169,149.251],[111.341,148.497],[111.525,147.745],[111.72,146.997],[111.927,146.251],[112.146,145.509],[112.376,144.77],[112.617,144.035],[112.87,143.304],[113.134,142.576],[113.409,141.853],[113.696,141.134],[113.993,140.42],[114.302,139.71],[114.621,139.006],[114.952,138.306],[115.293,137.611],[115.644,136.922],[116.007,136.238],[116.38,135.56],[116.763,134.888],[117.157,134.222],[117.561,133.562],[117.975,132.909],[118.4,132.262],[118.834,131.621],[119.278,130.988],[119.732,130.361],[120.195,129.741],[120.668,129.129],[121.151,128.524],[121.643,127.927],[122.144,127.337],[122.654,126.755],[123.172,126.181],[123.7,125.615],[124.237,125.057],[124.782,124.508],[125.335,123.967],[125.897,123.435],[126.467,122.912],[127.045,122.397],[127.631,121.892],[128.224,121.396],[128.826,120.908],[129.434,120.431],[130.05,119.962],[130.673,119.504],[131.304,119.055],[131.941,118.616],[132.584,118.186],[133.235,117.767],[133.892,117.358],[134.555,116.959],[135.224,116.57],[135.899,116.192],[136.58,115.824],[137.266,115.467],[137.958,115.121],[138.655,114.785],[139.357,114.46],[140.065,114.146],[140.777,113.843],[141.493,113.551],[142.214,113.27],[142.939,113.001],[143.669,112.742],[144.402,112.495],[145.139,112.26],[145.88,112.035],[146.624,111.823],[147.371,111.621],[148.121,111.432],[148.874,111.254],[149.63,111.087],[150.388,110.933],[151.148,110.79],[151.911,110.659],[152.675,110.539],[153.442,110.432],[154.21,110.336],[154.979,110.253],[155.749,110.181],[156.521,110.121],[157.293,110.073],[158.066,110.037],[158.839,110.013],[159.613,110.001],[160.387,110.001],[161.161,110.013],[161.934,110.037],[162.707,110.073],[163.479,110.121],[164.251,110.181],[165.021,110.253],[165.79,110.336],[166.558,110.432],[167.325,110.539],[168.089,110.659],[168.852,110.79],[169.612,110.933],[170.37,111.087],[171.126,111.254],[171.879,111.432],[172.629,111.621],[173.376,111.823],[174.12,112.035],[174.861,112.26],[175.598,112.495],[176.331,112.742],[177.061,113.001],[177.786,113.27],[178.507,113.551],[179.223,113.843],[179.935,114.146],[180.643,114.46],[181.345,114.785],[182.042,115.121],[182.734,115.467],[183.42,115.824],[184.101,116.192],[184.776,116.57],[185.445,116.959],[186.108,117.358],[186.765,117.767],[187.416,118.186],[188.059,118.616],[188.696,119.055],[189.327,119.504],[189.95,119.962],[190.566,120.431],[191.174,120.908],[191.776,121.396],[192.369,121.892],[192.955,122.397],[193.533,122.912],[194.103,123.435],[194.665,123.967],[195.218,124.508],[195.763,125.057],[196.3,125.615],[196.828,126.181],[197.346,126.755],[197.856,127.337],[198.357,127.927],[198.849,128.524],[199.332,129.129],[199.805,129.741],[200.268,130.361],[200.722,130.988],[201.166,131.621],[201.6,132.262],[202.025,132.909],[202.439,133.562],[202.843,134.222],[203.237,134.888],[203.62,135.56],[203.993,136.238],[204.356,136.922],[204.707,137.611],[205.048,138.306],[205.379,139.006],[205.698,139.71],[206.007,140.42],[206.304,141.134],[206.591,141.853],[206.866,142.576],[207.13,143.304],[207.383,144.035],[207.624,144.77],[207.854,145.509],[208.073,146.251],[208.28,146.997],[208.475,147.745],[208.659,148.497],[208.831,149.251],[208.992,150.008],[209.14,150.768],[209.277,151.529],[209.402,152.293],[209.516,153.058],[209.617,153.825],[209.707,154.594],[209.785,155.364],[209.85,156.135],[209.904,156.907],[209.946,157.679],[209.976,158.453],[209.994,159.226],[210,160],[209.994,160.774],[209.976,161.547],[209.946,162.321],[209.904,163.093],[209.85,163.865],[209.785,164.636],[209.707,165.406],[209.617,166.175],[209.516,166.942],[209.402,167.707],[209.277,168.471],[209.14,169.232],[208.992,169.992],[208.831,170.749],[208.659,171.503],[208.475,172.255],[208.28,173.003],[208.073,173.749],[207.854,174.491],[207.624,175.23],[207.383,175.965],[207.13,176.696],[206.866,177.424],[206.591,178.147],[206.304,178.866],[206.007,179.58],[205.698,180.29],[205.379,180.994],[205.048,181.694],[204.707,182.389],[204.356,183.078],[203.993,183.762],[203.62,184.439],[203.237,185.112],[202.843,185.778],[202.439,186.438],[202.025,187.091],[201.6,187.738],[201.166,188.379],[200.722,189.012],[200.268,189.639],[199.805,190.259],[199.332,190.871],[198.849,191.476],[198.357,192.073],[197.856,192.663],[197.346,193.245],[196.828,193.819],[196.3,194.385],[195.763,194.943],[195.218,195.492],[194.665,196.033],[194.103,196.565],[193.533,197.088],[192.955,197.603],[192.369,198.108],[191.776,198.604],[191.174,199.092],[190.566,199.569],[189.95,200.038],[189.327,200.496],[188.696,200.945],[188.059,201.384],[187.416,201.814],[186.765,202.233],[186.108,202.642],[185.445,203.041],[184.776,203.43],[184.101,203.808],[183.42,204.176],[182.734,204.533],[182.042,204.879],[181.345,205.215],[180.643,205.54],[179.935,205.854],[179.223,206.157],[178.507,206.449],[177.786,206.73],[177.061,206.999],[176.331,207.258],[175.598,207.505],[174.861,207.74],[174.12,207.965],[173.376,208.177],[172.629,208.379],[171.879,208.568],[171.126,208.746],[170.37,208.913],[169.612,209.067],[168.852,209.21],[168.089,209.341],[167.325,209.461],[166.558,209.568],[165.79,209.664],[165.021,209.747],[164.251,209.819],[163.479,209.879],[162.707,209.927],[161.934,209.963],[161.161,209.987],[160.387,209.999],[159.613,209.999],[158.839,209.987],[158.066,209.963],[157.293,209.927],[156.521,209.879],[155.749,209.819],[154.979,209.747],[154.21,209.664],[153.442,209.568],[152.675,209.461],[151.911,209.341],[151.148,209.21],[150.388,209.067],[149.63,208.913],[148.874,208.746],[148.121,208.568],[147.371,208.379],[146.624,208.177],[145.88,207.965],[145.139,207.74],[144.402,207.505],[143.669,207.258],[142.939,206.999],[142.214,206.73],[141.493,206.449],[140.777,206.157],[140.065,205.854],[139.357,205.54],[138.655,205.215],[137.958,204.879],[137.266,204.533],[136.58,204.176],[135.899,203.808],[135.224,203.43],[134.555,203.041],[133.892,202.642],[133.235,202.233],[132.584,201.814],[131.941,201.384],[131.304,200.945],[130.673,200.496],[130.05,200.038],[129.434,199.569],[128.826,199.092],[128.224,198.604],[127.631,198.108],[127.045,197.603],[126.467,197.088],[125.897,196.565],[125.335,196.033],[124.782,195.492],[124.237,194.943],[123.7,194.385],[123.172,193.819],[122.654,193.245],[122.144,192.663],[121.643,192.073],[121.151,191.476],[120.668,190.871],[120.195,190.259],[119.732,189.639],[119.278,189.012],[118.834,188.379],[118.4,187.738],[117.975,187.091],[117.561,186.438],[117.157,185.778],[116.763,185.112],[116.38,184.439],[116.007,183.762],[115.644,183.078],[115.293,182.389],[114.952,181.694],[114.621,180.994],[114.302,180.29],[113.993,179.58],[113.696,178.866],[113.409,178.147],[113.134,177.424],[112.87,176.696],[112.617,175.965],[112.376,175.23],[112.146,174.491],[111.927,173.749],[111.72,173.003],[111.525,172.255],[111.341,171.503],[111.169,170.749],[111.008,169.992],[110.86,169.232],[110.723,168.471],[110.598,167.707],[110.484,166.942],[110.383,166.175],[110.293,165.406],[110.215,164.636],[110.15,163.865],[110.096,163.093],[110.054,162.321],[110.024,161.547],[110.006,160.774],[110,160]]
M73 P0 R70
M106 S0
M106 P2 S0
;TYPE:Custom
;ELEGOO NEPTUNE 4 PLUS
M220 S100 ;Set the feed speed to 100%
M221 S100 ;Set the flow rate to 100%
M104 S140
M190 S60
G90
G28 ;home
G1 Z10 F300
G1 X115 Y0.5 F6000
G1 Z0 F300
M109 S210
G92 E0 ;Reset Extruder
G1 X115 Y0.5 Z0.4 F300 ;Move to start position
G1 X215.0 E30 F400 ;Draw the first line
G1 Z0.6 F120.0 ;Move to side a little
M73 P0 R69
G1 X210 F3000
G92 E0 ;Reset Extruder
G90
G21
M83 ; use relative distances for extrusion
; filament start gcode
M106 S0
M106 P2 S0
;LAYER_CHANGE
;Z:0.2
;HEIGHT:0.2
;BEFORE_LAYER_CHANGE
G92 E0
;0.2


G1 E-.5 F2700
;AFTER_LAYER_CHANGE
;0.2
;_SET_FAN_SPEED_CHANGING_LAYER
SET_VELOCITY_LIMIT ACCEL=1000 ACCEL_TO_DECEL=500
SET_VELOCITY_LIMIT SQUARE_CORNER_VELOCITY=7
G1 Z.4 F21000
G1 X123.819 Y123.523
G1 Z.4
G1 Z.2
G1 E.5 F2700
;TYPE:Skirt
;WIDTH:0.42
G1 F3000
G1 X126.129 Y121.369 E.09705
G1 X127.959 Y119.838 E.07329
G1 X129.874 Y118.382 E.07394
G1 X131.838 Y117.029 E.07329
G1 X133.863 Y115.768 E.07329
G1 X136.63 Y114.246 E.09706
G1 X138.779 Y113.21 E.07329
G1 X140.973 Y112.276 E.07329
G1 X143.229 Y111.437 E.07394
G1 X145.501 Y110.711 E.07329
G1 X147.804 Y110.091 E.07329
G1 X150.134 Y109.579 E.07329
G1 X153.25 Y109.068 E.09705
G1 X155.622 Y108.81 E.07329
G1 X158.002 Y108.662 E.07329
G1 X160.395 Y108.625 E.07353
G1 X162.792 Y108.699 E.0737
G1 X165.17 Y108.884 E.07329
G1 X168.301 Y109.298 E.09705
G1 X170.645 Y109.738 E.07329
G1 X172.967 Y110.286 E.07329
G1 X175.26 Y110.942 E.07329
G1 X177.54 Y111.71 E.07394
G1 X179.763 Y112.576 E.07329
G1 X181.942 Y113.544 E.07329
G1 X184.075 Y114.613 E.07329
G1 X186.818 Y116.178 E.09705
G1 X188.823 Y117.47 E.07329
G1 X190.783 Y118.866 E.07394
G1 X192.659 Y120.339 E.07329
G1 X194.465 Y121.898 E.07328
G1 X196.741 Y124.087 E.09705
G1 X198.368 Y125.831 E.07329
G1 X199.917 Y127.655 E.07353
G1 X201.383 Y129.553 E.0737
G1 X202.752 Y131.507 E.07329
G1 X204.422 Y134.188 E.09705
G1 X205.572 Y136.277 E.07329
G1 X206.624 Y138.418 E.07329
G1 X207.583 Y140.624 E.07394
G1 X208.684 Y143.585 E.09706
G1 X209.394 Y145.862 E.07329
G1 X210.001 Y148.191 E.07394
G1 X210.496 Y150.524 E.07329
G1 X210.982 Y153.645 E.09706
G1 X211.222 Y156.018 E.07329
G1 X211.352 Y158.399 E.07329
G1 X211.371 Y160.784 E.07329
G1 X211.278 Y163.189 E.07394
G1 X211.075 Y165.565 E.07329
G1 X210.761 Y167.93 E.07329
G1 X210.178 Y171.034 E.09705
G1 X209.612 Y173.351 E.07329
G1 X208.939 Y175.639 E.07329
G1 X208.153 Y177.914 E.07394
G1 X207.27 Y180.129 E.07329
G1 X206.284 Y182.301 E.07329
G1 X204.827 Y185.103 E.09705
G1 X203.613 Y187.157 E.07329
G1 X202.306 Y189.152 E.07329
G1 X200.907 Y191.084 E.07329
G1 X199.421 Y192.949 E.07329
G1 X197.835 Y194.758 E.07394
G1 X196.175 Y196.482 E.07353
G1 X193.871 Y198.631 E.09682
G1 X192.041 Y200.162 E.07329
G1 X190.126 Y201.618 E.07394
G1 X188.162 Y202.971 E.07329
G1 X186.137 Y204.232 E.07329
G1 X183.37 Y205.754 E.09705
G1 X181.221 Y206.79 E.07329
G1 X179.027 Y207.724 E.07329
G1 X176.771 Y208.563 E.07394
G1 X174.499 Y209.289 E.07329
G1 X172.196 Y209.909 E.07329
G1 X169.844 Y210.425 E.074
G1 X166.75 Y210.932 E.09634
G1 X164.378 Y211.19 E.07329
G1 X161.998 Y211.338 E.07329
G1 X159.592 Y211.375 E.07394
G1 X156.436 Y211.253 E.09705
G1 X154.061 Y211.033 E.07329
G1 X151.699 Y210.702 E.07329
G1 X149.354 Y210.262 E.07329
G1 X147.033 Y209.714 E.07329
G1 X144.72 Y209.052 E.07394
G1 X142.46 Y208.29 E.07329
G1 X140.216 Y207.415 E.074
G1 X137.36 Y206.12 E.09634
G1 X135.244 Y205.02 E.07329
G1 X133.182 Y203.822 E.07329
G1 X131.159 Y202.518 E.07394
G1 X129.217 Y201.134 E.07329
G1 X127.323 Y199.646 E.074
G1 X124.965 Y197.579 E.09634
G1 X123.259 Y195.913 E.07329
G1 X121.632 Y194.169 E.07329
G1 X120.083 Y192.345 E.07353
G1 X118.617 Y190.447 E.0737
G1 X117.248 Y188.493 E.07329
G1 X115.578 Y185.812 E.09705
G1 X114.428 Y183.723 E.07329
G1 X113.367 Y181.563 E.07394
G1 X112.417 Y179.376 E.07328
G1 X111.316 Y176.415 E.09706
G1 X110.606 Y174.138 E.07329
G1 X109.999 Y171.809 E.07394
G1 X109.504 Y169.476 E.07329
G1 X109.119 Y167.122 E.07329
G1 X108.841 Y164.73 E.074
G1 X108.648 Y161.601 E.09634
G1 X108.629 Y159.216 E.07329
G1 X108.722 Y156.811 E.07394
G1 X108.925 Y154.435 E.07329
G1 X109.239 Y152.07 E.07329
G1 X109.822 Y148.966 E.09705
G1 X110.388 Y146.649 E.07329
G1 X111.061 Y144.361 E.07329
G1 X111.847 Y142.086 E.07394
G1 X112.73 Y139.871 E.07329
G1 X113.716 Y137.699 E.07329
G1 X115.173 Y134.897 E.09705
G1 X116.387 Y132.843 E.07329
G1 X117.694 Y130.848 E.07329
G1 X119.093 Y128.916 E.07329
G1 X120.593 Y127.035 E.07394
G1 X122.165 Y125.242 E.07329
G1 X123.792 Y123.552 E.07206
; printing object load cell top v2 v1.step id:0 copy 0
G1 E-.425 F2700
;WIPE_START
G1 F3000
G1 X124.522 Y122.869 E-.075
;WIPE_END
EXCLUDE_OBJECT_START NAME=load_cell_top_v2_v1.step_id_0_copy_0
G1 Z.6 F21000
G1 X147.767 Y207.379 Z.6
G1 Z.2
G1 E.5 F2700
;TYPE:Inner wall
;WIDTH:0.419999
G1 F3000
G1 X147.64 Y207.349 E.00402
G1 X145.455 Y206.724 E.06981
G1 X143.299 Y205.998 E.06992
G1 X141.884 Y205.459 E.04653
G1 X139.797 Y204.571 E.06969
G1 X138.43 Y203.926 E.04642
G1 X136.412 Y202.875 E.06992
G1 X134.447 Y201.734 E.0698
G1 X132.538 Y200.503 E.06981
G1 X130.688 Y199.185 E.06981
G1 X128.901 Y197.783 E.0698
G1 X127.181 Y196.299 E.0698
G1 X125.531 Y194.736 E.06981
G1 X123.956 Y193.099 E.0698
G1 X122.457 Y191.388 E.06992
G1 X121.506 Y190.214 E.04643
G1 X120.591 Y189.011 E.04642
G1 X119.285 Y187.148 E.06992
G1 X118.069 Y185.229 E.0698
G1 X116.943 Y183.256 E.06981
G1 X115.911 Y181.232 E.0698
G1 X114.973 Y179.163 E.06981
G1 X114.13 Y177.049 E.06991
G1 X113.626 Y175.625 E.04643
G1 X113.166 Y174.186 E.04642
G1 X112.557 Y171.994 E.06992
G1 X112.051 Y169.779 E.06981
G1 X111.649 Y167.539 E.06992
G1 X111.439 Y166.043 E.04642
G1 X111.275 Y164.541 E.04642
G1 X111.117 Y162.271 E.06992
G1 X111.064 Y160 E.06981
G1 X111.117 Y157.725 E.06992
G1 X111.275 Y155.459 E.06981
G1 X111.439 Y153.957 E.04642
G1 X111.649 Y152.461 E.04642
G1 X112.051 Y150.221 E.06992
G1 X112.557 Y148.006 E.06981
G1 X113.166 Y145.814 E.06991
G1 X113.628 Y144.367 E.04666
G1 X114.13 Y142.951 E.04619
G1 X114.973 Y140.837 E.06992
G1 X115.911 Y138.768 E.06981
G1 X116.943 Y136.744 E.0698
G1 X118.071 Y134.768 E.06992
G1 X119.287 Y132.849 E.06981
G1 X120.145 Y131.605 E.04642
G1 X121.04 Y130.388 E.04642
G1 X122.459 Y128.609 E.06992
G1 X123.956 Y126.901 E.0698
G1 X125.531 Y125.264 E.0698
G1 X127.181 Y123.701 E.0698
G1 X128.901 Y122.217 E.06981
G1 X130.688 Y120.815 E.0698
G1 X132.538 Y119.497 E.06981
G1 X134.451 Y118.264 E.06992
G1 X136.415 Y117.123 E.06981
G1 X137.75 Y116.415 E.04642
G1 X139.106 Y115.749 E.04642
G1 X141.182 Y114.827 E.06981
G1 X143.306 Y114 E.07004
G1 X144.734 Y113.506 E.04642
G1 X146.177 Y113.057 E.04642
G1 X148.374 Y112.466 E.06992
G1 X150.592 Y111.977 E.06981
G1 X152.831 Y111.592 E.0698
G1 X155.086 Y111.312 E.0698
G1 X157.354 Y111.136 E.06992
G1 X158.865 Y111.077 E.04646
G1 X160.004 Y111.066 E.03498
G1 X161.135 Y111.077 E.03475
G1 X162.646 Y111.136 E.04646
G1 X164.914 Y111.312 E.06992
G1 X167.169 Y111.592 E.06981
G1 X169.407 Y111.977 E.0698
G1 X171.623 Y112.465 E.0697
G1 X173.823 Y113.057 E.07003
G1 X175.266 Y113.506 E.04643
G1 X176.694 Y114 E.04642
G1 X178.814 Y114.826 E.06992
G1 X180.891 Y115.748 E.0698
G1 X182.922 Y116.765 E.0698
G1 X184.904 Y117.875 E.0698
G1 X186.832 Y119.076 E.06981
G1 X188.702 Y120.366 E.0698
G1 X190.514 Y121.743 E.06992
G1 X192.257 Y123.2 E.06981
G1 X193.377 Y124.214 E.04642
G1 X194.466 Y125.261 E.04642
G1 X196.041 Y126.898 E.06981
G1 X197.541 Y128.609 E.06992
G1 X198.957 Y130.385 E.0698
G1 X200.29 Y132.225 E.0698
G1 X201.535 Y134.125 E.06981
G1 X202.693 Y136.084 E.06992
G1 X203.411 Y137.413 E.04642
G1 X204.088 Y138.764 E.04643
G1 X205.027 Y140.837 E.06992
G1 X205.87 Y142.951 E.06992
G1 X206.374 Y144.375 E.04642
G1 X206.834 Y145.814 E.04643
G1 X207.443 Y148.006 E.06991
G1 X207.948 Y150.217 E.0697
G1 X208.351 Y152.461 E.07004
G1 X208.561 Y153.957 E.04642
G1 X208.725 Y155.459 E.04642
G1 X208.883 Y157.729 E.06992
G1 X208.936 Y160 E.06981
G1 X208.883 Y162.275 E.06992
G1 X208.725 Y164.541 E.06981
G1 X208.561 Y166.043 E.04642
G1 X208.351 Y167.539 E.04642
G1 X207.949 Y169.779 E.06992
G1 X207.443 Y171.994 E.06981
